!!!SOCIAL_FUNCTION:	songs used in the treatment of the sick
!!!PDT:	1929
!!!OTL: No_69_The_Rocks_are_Shaking.krn
!!!REG: Southwest
!!!LANG: Non-Tone
!!!LING_GROUP: Uto-Aztecan
**kern
*staff1
*clefF4
*k[f#]
*M2/4
4E\
=1
4B\
8.B\L
16B\Jk
=2||
*M3/4
8.B\L
16G\Jk
8.G\L
16E\Jk
8E\
8r
=3!|:
*M2/4
4G\
(8.B\L
16G\Jk)
=4
8.G\L
16G\Jk
8.G\L
16E\Jk
=5
8.E/L
16C/Jk
8E\
8r
=6
(8.G\L
16F#\Jk)
8.G\L
16G\Jk
=7||
*M3/4
4G\
(8.F#\L
16E\Jk)
4E\
=8||
*M2/4
(8.G\L
16F#\Jk)
8F#\L
8E\J
=9||
*M3/4
8.E\L
16E\Jk
8.E\L
16E\Jk
16C/LL
16C/JJ
8r
=10||
*M2/4
16E\LK
8.E\J
12F#\L
12E\
12E\J
=11
16E\LK
8.E\J
8.E\L
16E\Jk
=12
4E\
16C/LK
8C/
16C/Jk
=13
4E\
8.E\L
16E\Jk
=14
2E\
==:|!
*-
